X: 14069
T: OSHI'S REEL
C: Bob McQuillen Dec.'09
B: Bob's Note Book 14 #69
%R: reel
%D:2009
Z: 2020 John Chambers <jc:trillian.mit.edu>
M: C
L: 1/8
K: D
fe \
| d2dB AFAB | defd edBA | f2dB ABde | fafd e2fe |
| d2dB AFAB | defd BAde | f2dB AFDF | EDEF D2 :|
|: FA \
| B2Bd BAFA | BABd B2AB | d2dB ABde | fafd BAFA |
| B2Bd BAFA | dBAF EGDE | F2DF ABdf | afef d2 :|
%%begintext align
%% Oshi Simsarian brings her fiddle to several
%% of the dance camps I've been to. She's a real nice
%% woman, and it's always a pleasure when I get to
%% visit with her. All the best to you, Oshi!
%%endtext

%%sep 1 1 500

%%sep 1 1 500

